X:350
T:Geese in the Bog, The
T:Old Geese in the Bog, The
R:jig
H:Also played in C, #248. See also reel#999
D:Music at Matt Molloy's
Z:id:hn-jig-350
M:6/8
K:D
|:dFF AFF|dFF ABc|dFF AFE|FBB B2c|
dFF AFF|dFF ABc|dcB AFE|FBB B2c:|
|:def a2f|afb afe|def afe|fbb baf|
def a2f|afb afe|dcB AFE|FBB B2c:|

